!!!OTL: Musikanten-Vierzeiler 2, S. 70
!!!id: S0080
**kern
*clefG2
*k[b-]
*F:
{16f
=1
16f
8.a
16f
8g
8b-
=2
8.g
16f
8g
8a}
=3
{8.b-
16a
8b-
8cc
=4
8a
8g
4f}
=5
{8.a
16f
8a
8b-
=6
8.g
16f
8g
8a}
=7
{8.cc
16a
8b-
8g
=8
8f
8e
8f}
8r
==
*-
!!!minrhy: 16
!!!meters: 2/4 ]  ZZ[4
!!!cut: Musikanten-Vierzeiler 2, S. 70
!!!reg: Luxemburg
!!!trd: Die Bauernhochzeit in fr&uuml;heren Zeiten
!!!rhy1:   X_.XX_X_  X_.XX_X_
!!!rhy2: X_.XX_X_  X_X_X__
!!!key: S0080  16  F 2/4 ]  ZZ[4
!!!mod: SECHSTONSKALA DUR ?]  AMBITUS[6b
!!!kad: 3131
!!!akz: 32_43_32_51_
!!!fot: 'a__b__bs"c__
!!!for: 'a__b__a__bv_
!!!fok: 'W__\__W__Sd_
!! PHRAS[VOLLTAKTIG]
!!!fkt: Brautlied
!! SPEDENER, G:
!! PR[28] 2K[7] 2G[7] 3K[3] 3G[10] 4A[7] 4Ü[0] 5A[0] 6K[0] 6G[0]
!! 7K[0] 7G[0] 8A[0] MEHR[0] SI[34] ABS[29] SR[14] SP[21]
!! ST[8] 2k[10] 2g[7] 3k[0] 3g[17] 4d[0] 4ü[0] 5d[0] 6k[3] 6g[0]
!! 7k[0] 7g[0] 8d[0] mehr[0] si[38] dm[-4] sr[17] sp[21]
!! 1F[13] 2F[73] 3F[13] 4F[0] LF[0] 2P[0] 3P[0] 4P[0] TRI[0] DF[3] AB[30]
!! TF[0] U3K[0] U3[0] U4[0] U4Ü[0] U5[0] U6K[0] U6[0] U7K[0] U7[10]
!! N1[47] N2K[0] N2[17] N3K[0] N3[17] N4[3] N4Ü[0] N5[7] N6K[0] N6[0]
!!!n7k: 0] N7[0] O1[0] O2K[0] O2[0] O3K[0] O3[0] HÖ[0
!!!RNB: symbol: &uuml;  = u umlaut (UTF-8: Ã¼)
